X:=3
T:Birth Of The Blues
C:Ray Henderson
L:1/4
M:C
I:linebreak $
K:C
"Dm" z G"Db7" ^F =F ||"C" E2"C#o" A G |"Dm" F2"D#o" B A |"Em" G2"E+" c B |$"F" A2"F#o" d c |
"G7" B"F" z"Em" B"Ebm" z |"Dm" z B/"Db7" B c/ d |"C" c2"C6""_Fine" z2 :|$"F7" z2 B/c/d/^d/ |
"E7" e2"Bø" d/B/ d |"E7" B2"Bø" d/B/ d |"E7" B2"Bø" B2 |$"E7" z2"A7" B/^c/d/^d/ |
"Em" e2"A7" ^c/A/ ^c |"Em" A2"A7" ^c/A/ ^c |"Am" A2"D7""_D.C. al Fine" A2 ||

